source/img/svg/catalog.svg

<svg width="24" height="24" fill="none" xmlns="http://www.w3.org/2000/svg"><path fill="#E5E5E5" d="M0 0h24v24H0z"/><path d="M-40-150h1440V874H-40z"/><path d="M-40-150h240V895H-40V-150z"/><path d="M10 3H3v7h7V3zm11 0h-7v7h7V3zm0 11h-7v7h7v-7zm-11 0H3v7h7v-7z" stroke="#333" stroke-width="2" stroke-linecap="round" stroke-linejoin="round"/></svg>

<svg width="24" height="24" viewBox="0 0 24 24" fill="none" xmlns="http://www.w3.org/2000/svg">
<rect width="24" height="24" fill="#E5E5E5"/>
<g id="Desktop 1440x900">
<rect width="1440" height="1024" transform="translate(-40 -150)" fill="none"/>
<g id="Sidebar / desktop">
<path id="sidebar / desktop" d="M-40 -150H200V895H-40V-150Z" fill="none"/>
<g id="&#208;&#154;&#208;&#176;&#209;&#130;&#208;&#181;&#208;&#179;&#208;&#190;&#209;&#128;&#208;&#184;&#209;&#143; / ipad-desktop / default">
<g id="icon / default / catalog">
<path id="Vector" d="M10 3H3V10H10V3Z" stroke="#333333" stroke-width="2" stroke-linecap="round" stroke-linejoin="round"/>
<path id="Vector_2" d="M21 3H14V10H21V3Z" stroke="#333333" stroke-width="2" stroke-linecap="round" stroke-linejoin="round"/>
<path id="Vector_3" d="M21 14H14V21H21V14Z" stroke="#333333" stroke-width="2" stroke-linecap="round" stroke-linejoin="round"/>
<path id="Vector_4" d="M10 14H3V21H10V14Z" stroke="#333333" stroke-width="2" stroke-linecap="round" stroke-linejoin="round"/>
</g>
</g>
</g>
</g>
</svg>
